X: 1
T: Viitatoista
T: Viistoista
M: 2/4
L: 1/8
P: D2 G2 D2 G2 = 4x
K: D
P: Viitatoista   [D]
|: "D"f2 "G"d>B | "D"AA/A/ AF | "A7"AG FG/G/ | "D"AA A2 \
:: "G"BB BB | "D"BA AA "I"| "A7"cc Bc | "D"dd d2 :|
P: Viitatoista   [G]
K: G
|: "G"b2 "C"g>e | "G"dd/d/ dB | "D7"dc Bc/c/ | "G"dd d2 \
:: "C"ee ee | "G"ed dd | "D7"ff ef | "G"gg g2 :|

%%sep 1 1 500

